X:172
T:Trip to Fanore(2)
C:Nollaig Casey
S:JimmyMcCarthy, Claus Steinort
R:reel
M:C
L:1/8
K:G
~G3 B dB ~B2|dege dBGB|cBAG FDDE|~F3 G AGFG|
~E3 F EC~C2|EFGF EC ~C2|B,EEB, EFGA|1B{d}BAF GFED:|2B2 AF GABd||
~g3 a bg~g2|dg ~g2 b2ag|fdAG FDDE|~F3 G ABcd|
~e3 f ec~c2|efgf ec~c2|B{d}BAF GABc|d^cde fdef|
~g3 a bg~g2|dg ~g2 b2ag|fdAG FDDE|~F3 G ABcd|
~e3 f ec~c2|efgf ec~c2|B{d}BAF GABc|d2ge dBAB|]
